icons/actions/22/window-new.svg

<svg xmlns="http://www.w3.org/2000/svg" viewBox="0 0 22 22">
  <defs id="defs3051">
    <style type="text/css" id="current-color-scheme">
      .ColorScheme-Text {
        color:#4d4d4d;
      }
      </style>
  </defs>
 <path 
    style="fill:currentColor;fill-opacity:1;stroke:none" 
	d="m3 3v4 11 1h10v-1h-9v-11h14v6h1v-6-4h-16m13 11v2h-2v1h2v2h1v-2h2v-1h-2v-2h-1"
	class="ColorScheme-Text"
    />  
</svg>

<?xml version="1.0"?>
<!-- Created with Inkscape (http://www.inkscape.org/) -->
<svg xmlns:dc="http://purl.org/dc/elements/1.1/" xmlns:cc="http://creativecommons.org/ns#" xmlns:rdf="http://www.w3.org/1999/02/22-rdf-syntax-ns#" xmlns:svg="http://www.w3.org/2000/svg" xmlns="http://www.w3.org/2000/svg" xmlns:sodipodi="http://sodipodi.sourceforge.net/DTD/sodipodi-0.dtd" xmlns:inkscape="http://www.inkscape.org/namespaces/inkscape" width="22" height="22" id="svg3760" version="1.1" inkscape:version="0.48+devel r" sodipodi:docname="window-new.svg">
  <defs id="defs3762">
    <style type="text/css" id="current-color-scheme">
      .ColorScheme-Text {
        color:#4d4d4d;
      }
      .ColorScheme-Background {
        color:#eff0f1;
      }
      .ColorScheme-Highlight {
        color:#3daee9;
      }
      .ColorScheme-ViewText {
        color:#31363b;
      }
      .ColorScheme-ViewBackground {
        color:#fcfcfc;
      }
      .ColorScheme-ViewHover {
        color:#93cee9;
      }
      .ColorScheme-ViewFocus{
        color:#3daee9;
      }
      .ColorScheme-ButtonText {
        color:#31363b;
      }
      .ColorScheme-ButtonBackground {
        color:#eff0f1;
      }
      .ColorScheme-ButtonHover {
        color:#93cee9;
      }
      .ColorScheme-ButtonFocus{
        color:#3daee9;
      }
      </style>
  </defs>
  <sodipodi:namedview id="base" pagecolor="#ffffff" bordercolor="#666666" borderopacity="1.0" inkscape:pageopacity="0.0" inkscape:pageshadow="2" inkscape:zoom="16.46713" inkscape:cx="9.9085506" inkscape:cy="1.6021865" inkscape:document-units="px" inkscape:current-layer="layer1" showgrid="true" fit-margin-top="0" fit-margin-left="0" fit-margin-right="0" fit-margin-bottom="0" inkscape:window-width="1366" inkscape:window-height="718" inkscape:window-x="-2" inkscape:window-y="23" inkscape:window-maximized="1" inkscape:showpageshadow="false">
    <inkscape:grid type="xygrid" id="grid4106" originx="-0.99998557px" originy="-1.0000252px"/>
    <sodipodi:guide position="2.00001,19.99997" orientation="0,18" id="guide4229"/>
    <sodipodi:guide position="20.00001,19.99997" orientation="18,0" id="guide4231"/>
    <sodipodi:guide position="20.00001,1.99997" orientation="0,-18" id="guide4233"/>
    <sodipodi:guide position="2.00001,1.99997" orientation="-18,0" id="guide4235"/>
    <sodipodi:guide position="3.00001,18.99997" orientation="0,16" id="guide4237"/>
    <sodipodi:guide position="19.00001,18.99997" orientation="16,0" id="guide4239"/>
    <sodipodi:guide position="19.00001,2.99997" orientation="0,-16" id="guide4241"/>
    <sodipodi:guide position="3.00001,2.99997" orientation="-16,0" id="guide4243"/>
  </sodipodi:namedview>
  <metadata id="metadata3765">
    <rdf:RDF>
      <cc:Work rdf:about="">
        <dc:format>image/svg+xml</dc:format>
        <dc:type rdf:resource="http://purl.org/dc/dcmitype/StillImage"/>
        <dc:title/>
      </cc:Work>
    </rdf:RDF>
  </metadata>
  <g inkscape:label="Capa 1" inkscape:groupmode="layer" id="layer1" transform="translate(-551.28571,-607.64788)">
    <path style="opacity:1;fill:currentColor;fill-opacity:1;stroke:none" d="M 3 3 L 3 7 L 3 18 L 3 19 L 13 19 L 13 18 L 4 18 L 4 7 L 18 7 L 18 13 L 19 13 L 19 7 L 19 3 L 3 3 z M 16 14 L 16 16 L 14 16 L 14 17 L 16 17 L 16 19 L 17 19 L 17 17 L 19 17 L 19 16 L 17 16 L 17 14 L 16 14 z " transform="translate(551.28571,607.64788)" id="rect4138" class="ColorScheme-Text"/>
  </g>
</svg>
